icon-themes/breeze_svg/cmd/sc_modifyframe.svg

<svg viewBox="0 0 16 16" xmlns="http://www.w3.org/2000/svg"><path d="m4 3v2h-2v1h2v2h1 2v-1h-2v-3h2v-1h-2zm5 0v1h2v3h-2v1h2 1v-1-1h2v-1h-2v-1-1h-1zm-2 2v1h2v-1z" fill="#4d4d4d"/><path d="m7 12c-.5522847 0-1 .447723-1 1s.4477153 1 1 1 1-.447723 1-1-.4477153-1-1-1zm3 0c-.5522847 0-1 .447723-1 1s.4477153 1 1 1c.552285 0 1-.447723 1-1s-.447715-1-1-1zm3 0c-.552285 0-1 .447723-1 1s.447715 1 1 1 1-.447723 1-1-.447715-1-1-1z" fill="#f47750"/></svg>

<svg xmlns="http://www.w3.org/2000/svg" viewBox="0 0 16 16">
 <path 
     style="fill:#4d4d4d" 
     d="M 4 3 L 4 5 L 2 5 L 2 6 L 4 6 L 4 8 L 5 8 L 7 8 L 7 7 L 5 7 L 5 4 L 7 4 L 7 3 L 5 3 L 4 3 z M 9 3 L 9 4 L 11 4 L 11 7 L 9 7 L 9 8 L 11 8 L 12 8 L 12 7 L 12 6 L 14 6 L 14 5 L 12 5 L 12 4 L 12 3 L 11 3 L 9 3 z M 7 5 L 7 6 L 9 6 L 9 5 L 7 5 z "
     />
 <path 
     style="fill:#f47750" 
     d="M 7 12 C 6.4477153 12 6 12.447723 6 13 C 6 13.552277 6.4477153 14 7 14 C 7.5522847 14 8 13.552277 8 13 C 8 12.447723 7.5522847 12 7 12 z M 10 12 C 9.4477153 12 9 12.447723 9 13 C 9 13.552277 9.4477153 14 10 14 C 10.552285 14 11 13.552277 11 13 C 11 12.447723 10.552285 12 10 12 z M 13 12 C 12.447715 12 12 12.447723 12 13 C 12 13.552277 12.447715 14 13 14 C 13.552285 14 14 13.552277 14 13 C 14 12.447723 13.552285 12 13 12 z "
     />
 </svg>
